X: 138
T: It Is Difficult
C: Teton Sioux band 1911-1914
N: Derived from sioux134.krn
O: South Dakota, U.S.A.
N: Teton Sioux Music by Frances Densmore, 1918
Z: transcribed to **kern format by Craig Sapp
L: 1/8
M: 2/4
Q: 1/4=58
K: G clef=bass
%%linebreak <none>
G< GG2 [I:setbarnb 2]| 
G2D2 | 
E< D D D | 
D4 | 
D< B, D D | 
D2B,2 | 
D< D- D (D// B,3//) | 
B,2G,2 | 
G, B,B,2 | 
B,2G,2 | 
B,< G, G, G, | 
G,4 ||  
[M:3/4]G,6 | 
G,4B,/ G,3/ ||  
[M:2/4]G< G G/ G3/ | 
(G> D) D/ D3/ | 
E< D D D ||  
[M:3/4]D< B, D< D D (D/ B,/) | 
D< D D (D/< B,/) B, G, | 
G,< G, D< C C (C// G,3//) | 
C< G, G, G, G, G, | 
G,6 | 
G,6 |]  



